X: 299
T: A Night To Aran's Islands
R: reel
M: 4/4
K: Dmajor
|:FAAB ADFA|dDcD BDA2|B3A Bcde|f2ec dcBA|
FAAB ADFA|dDcD BDA2|B3A Bcde|f2ecd3z:|
|:e2AB cdef|g/f/efd edcA|e2^de BeAf|gefg a/a/^ga2|
e2AB cdef|g/f/efd edcA|Add/d/d eff2|1 geec dgfg:|2 geecd3z||

